src/assets/img/neural-network.svg

<?xml version="1.0" encoding="UTF-8"?>
<svg width="200px" height="200px" viewBox="0 0 200 200" version="1.1" xmlns="http://www.w3.org/2000/svg" xmlns:xlink="http://www.w3.org/1999/xlink">
    <!-- Generator: Sketch 52 (66869) - http://www.bohemiancoding.com/sketch -->
    <title>atoms / illustration - neural_network</title>
    <desc>Created with Sketch.</desc>
    <g id="atoms-/-illustration---neural_network" stroke="none" stroke-width="1" fill="none" fill-rule="evenodd">
        <g id="icon-machine_learning" transform="translate(54.000000, 44.000000)">
            <g id="organisms-/-cards-/-goals-copy-4">
                <g id="atoms-/-illustration---slack_bot">
                    <g id="Group-3">
                        <g id="2-neural-network">
                            <path d="M83.0452717,37.3029336 C82.0057237,25.1392127 74.8120514,13.9183755 64.7440288,7.19837551 C59.1823055,3.54737286 52.8591419,1.22348453 46.2608649,0.405445275 C28.198718,-1.95436868 9.15939601,6.00544527 2.33996098,23.800422 C-3.52308987,39.1053523 2.25679714,54.2904685 12.7354412,65.8759569 C16.5245937,70.0433988 17.0495655,77.9146546 17.0495655,83.212515 L17.0495655,93.9488871 C17.0495655,95.5974186 18.3829981,96.9338174 20.0278706,96.9338174 L58.7978141,96.9338174 C60.3655497,96.9343611 61.6643143,95.7147731 61.7657237,94.1468406 C61.9112604,92.0318639 62.1451587,90.1773523 62.1451587,90.1773523 C62.9560062,86.692329 65.918718,83.9001429 72.2235768,84.9107476 C78.8351022,85.9526081 83.0088875,83.9991197 83.3779271,79.5868406 C83.5026728,78.1334453 83.5806389,65.6988406 83.5806389,65.6988406 C83.8977011,65.516515 85.9664017,65.1049802 88.9914864,64.4173523 C90.0789952,64.1689509 90.9445866,63.3455932 91.2488632,62.2701168 C91.5531398,61.1946403 91.2476022,60.0384681 90.4520514,59.2549336 C83.5858367,52.4463755 82.6554412,49.2687011 82.4943113,48.5862825 C81.6418819,45.1950267 83.3311474,40.8713057 83.0140853,37.3029336 L83.0452717,37.3029336 Z" id="Path" fill="#2D2E3D"></path>
                            <g id="Bitmap" transform="translate(9.000000, 9.000000)" fill="#C6C7DC">
                                <g id="Mask">
                                    <path d="M61.341875,24.0584918 C60.733086,24.9087498 59.7834582,25.4493383 58.743005,25.5379336 C58.6534223,25.5426177 58.5707811,25.5877275 58.51826,25.6606108 C58.4657388,25.7334941 58.4489942,25.8263017 58.4727225,25.9130034 C58.7689937,26.9548639 59.0704626,29.8251895 53.9402931,30.9451895 C49.1271857,31.9870499 46.221649,35.7429569 44.3192761,37.6443523 C42.8639089,39.1081662 40.8887677,39.7853755 38.9188242,40.2490034 C36.9488807,40.7126313 34.9165643,41.0981197 33.3260558,42.5306778 C31.6575812,44.0413755 29.2978072,52.3502127 28.8975812,53.7931895 C28.8610327,53.9184744 28.7471334,54.0051459 28.6169033,54.0067709 L26.1323835,54.0067709 C25.9927532,54.0091001 25.8718793,53.9099833 25.8465078,53.7723523 L24.6458298,48.1046313 C24.5990501,47.8650034 13.002892,48.823515 12.1088807,43.6350499 C12.0952562,43.5481539 12.0438909,43.4717844 11.9686312,43.4265282 C11.8933716,43.381272 11.8019644,43.3717874 11.7190501,43.4006313 C10.6067338,43.8069569 7.04108405,44.7967243 5.09712925,41.7961662 C4.15520193,40.3885478 3.85826118,38.6446422 4.28108405,37.0036081 C4.31931975,36.8589769 4.24007493,36.7092115 4.09916314,36.6597941 C3.11679026,36.2378406 -0.438463975,34.2374685 0.0449258553,27.663329 C0.460745064,22.339422 4.02119704,19.9900267 3.52221399,19.1773755 C2.08243998,16.8279802 3.33509535,12.9262127 6.28741173,12.0614685 C6.40585597,12.0265979 6.49189021,11.9239484 6.50571682,11.8010034 L6.63046258,10.4205383 C7.03588631,5.54984063 13.4239089,2.46072435 17.7640219,4.48714295 C17.8434458,4.52431126 17.9349432,4.52564008 18.0154083,4.49079386 C18.0958735,4.45594763 18.1576141,4.38825756 18.1850388,4.30481737 C18.4578025,3.27324151 19.1630296,2.41064656 20.1185982,1.93979411 C21.5241426,1.24349551 23.1657284,1.20914021 24.5990501,1.84602667 C24.7124583,1.89519839 24.8445528,1.86577877 24.9265078,1.77309644 C26.196697,0.595508734 27.8746732,-0.0398034861 29.6044739,0.0019336489 C31.3128948,-0.0338676203 32.9714057,0.580383284 34.2460558,1.72100342 C34.3355516,1.79018881 34.456527,1.80231326 34.5579202,1.75225923 C35.1764513,1.43449179 37.4374682,0.418677835 39.7036829,1.20007318 C40.9906741,1.71970425 42.0491881,2.68446627 42.6871857,3.919329 C42.7534041,4.0397616 42.8913819,4.10145787 43.0250388,4.07039877 C43.8358863,3.87765458 46.6634569,3.33588714 49.00244,4.40379411 C51.4973552,5.53421272 52.2718185,7.16472435 52.4693326,7.71170109 C52.5098297,7.82440103 52.6149519,7.90083581 52.7344174,7.90444528 C53.2541914,7.90444528 54.7667338,8.05551504 55.6867338,8.83170109 C57.3188242,10.2017476 57.1576942,11.2852825 56.9705756,11.7489104 C56.9140253,11.8900122 56.9751037,12.0509831 57.1109146,12.1187709 C58.9026194,13.0182079 60.361172,14.4672302 61.2743044,16.2549569 C63.0519315,19.7868639 62.3138524,22.8186778 61.362666,24.0689104 L61.341875,24.0584918 Z" id="path-1"></path>
                                </g>
                            </g>
                            <ellipse id="Oval" fill="#C6C7DC" cx="14.8863277" cy="96.9194419" rx="14.8863277" ry="14.9194419"></ellipse>
                            <path d="M15.0241808,89 C11.6971176,89 9,91.7031173 9,95.0375814 C9,98.3663256 13.979435,105.919814 15.0241808,105.919814 C16.0689266,105.919814 21.0431638,98.3663256 21.0431638,95.0375814 C21.0431651,91.7051506 18.3492139,89.0028753 15.0241808,89 Z M15.1541243,97.4182326 C14.0058713,97.4182326 13.0750282,96.4853189 13.0750282,95.3345116 C13.0750282,94.1837043 14.0058713,93.2507907 15.1541243,93.2507907 C16.3023773,93.2507907 17.2332203,94.1837043 17.2332203,95.3345116 C17.2332203,96.4853189 16.3023773,97.4182326 15.1541243,97.4182326 Z" id="Shape" fill="#2D2E3D" fill-rule="nonzero"></path>
                        </g>
                    </g>
                </g>
            </g>
            <circle id="Oval-Copy-14" fill="#2D2E3D" cx="23.5" cy="24.5" r="2.5"></circle>
            <circle id="Oval-Copy-15" fill="#2D2E3D" cx="49.5" cy="47.5" r="2.5"></circle>
            <circle id="Oval-Copy-17" fill="#2D2E3D" cx="56.5" cy="23.5" r="1.5"></circle>
            <circle id="Oval-Copy-17" fill="#2D2E3D" cx="60.5" cy="32.5" r="1.5"></circle>
            <circle id="Oval-Copy-18" fill="#2D2E3D" cx="34.5" cy="51.5" r="1.5"></circle>
            <circle id="Oval-Copy-19" fill="#2D2E3D" cx="13.5" cy="28.5" r="1.5"></circle>
            <circle id="Oval-Copy-20" fill="#2D2E3D" cx="14.5" cy="44.5" r="3.5"></circle>
            <g id="network" transform="translate(15.000000, 7.000000)">
                <path d="M36.9454545,4 C35.2608727,4 33.8909091,5.36996364 33.8909091,7.05454545 C33.8909091,7.58145455 34.0248,8.07730909 34.2605091,8.51054545 L29.2566545,13.5144 C28.5668364,12.9773091 27.7034182,12.6545455 26.7636364,12.6545455 C25.8238545,12.6545455 24.9604364,12.9773091 24.2701091,13.5138909 L20.3658909,9.60967273 C20.5450909,9.30676364 20.6545455,8.95854545 20.6545455,8.58181818 C20.6545455,7.45876364 19.7412364,6.54545455 18.6181818,6.54545455 C17.4951273,6.54545455 16.5818182,7.45876364 16.5818182,8.58181818 C16.5818182,9.70487273 17.4951273,10.6181818 18.6181818,10.6181818 C18.9949091,10.6181818 19.3431273,10.5087273 19.6460364,10.3295273 L23.5502545,14.2337455 C23.0136727,14.9240727 22.6909091,15.7874909 22.6909091,16.7272727 C22.6909091,17.6670545 23.0136727,18.5304727 23.5502545,19.2202909 L17.1031273,25.6679273 C16.5604364,25.1756364 15.8431273,24.8727273 15.0545455,24.8727273 C13.3699636,24.8727273 12,26.2426909 12,27.9272727 C12,29.6118545 13.3699636,30.9818182 15.0545455,30.9818182 C16.7391273,30.9818182 18.1090909,29.6118545 18.1090909,27.9272727 C18.1090909,27.4003636 17.9752,26.9045091 17.7394909,26.4712727 L24.2706182,19.9401455 C24.8336727,20.3779636 25.5128,20.6712 26.2550545,20.7643636 L26.2550545,25.9367273 C24.8128,26.1800727 23.7096,27.4344727 23.7096,28.9454545 C23.7096,30.6300364 25.0795636,32 26.7641455,32 C28.4487273,32 29.8186909,30.6300364 29.8186909,28.9454545 C29.8186909,27.4349818 28.7154909,26.1805818 27.2732364,25.9367273 L27.2732364,20.7643636 C28.0154909,20.6712 28.6946182,20.3779636 29.2576727,19.9401455 L33.1618909,23.8443636 C32.9821818,24.1477818 32.8727273,24.496 32.8727273,24.8727273 C32.8727273,25.9957818 33.7860364,26.9090909 34.9090909,26.9090909 C36.0321455,26.9090909 36.9454545,25.9957818 36.9454545,24.8727273 C36.9454545,23.7496727 36.0321455,22.8363636 34.9090909,22.8363636 C34.5323636,22.8363636 34.1841455,22.9458182 33.8812364,23.1250182 L29.9770182,19.2208 C30.5136,18.5304727 30.8363636,17.6670545 30.8363636,16.7272727 C30.8363636,15.7874909 30.5136,14.9240727 29.9770182,14.2342545 L34.8973818,9.31389091 C35.4395636,9.80618182 36.1568727,10.1090909 36.9454545,10.1090909 C38.6300364,10.1090909 40,8.73912727 40,7.05454545 C40,5.36996364 38.6300364,4 36.9454545,4 Z" id="Path" fill="#2D2E3D"></path>
                <polyline id="Path-5" stroke="#2D2E3D" points="27.3542184 30.7035467 33.9055575 40.0369106 35.2764005 26.0003918 44.5734597 26.0003918 44.5734597 38.9864239 61.0753446 27.4441807 46.0464941 26.0003918 41.8079064 16.4999585 57 15 37.8405965 8 24.6965712 0.961495876 20 8.57912095 4.90204081 5.92080141 25.4720824 16.4999585 8.4720147 18 14.2491871 28.5215598 0 21.8730717 0 35.7149563 19.3137094 44.2990291 16.6056388 28.5215598 25.4720824 29.1471456 0 38.9864239"></polyline>
            </g>
        </g>
    </g>
</svg>

<svg width="92" height="112" xmlns="http://www.w3.org/2000/svg" xmlns:xlink="http://www.w3.org/1999/xlink"><defs><path d="M61.342 24.058a3.57 3.57 0 0 1-2.599 1.48.296.296 0 0 0-.27.375c.296 1.042.597 3.912-4.533 5.032-4.813 1.042-7.718 4.798-9.62 6.7-1.456 1.463-3.431 2.14-5.401 2.604-1.97.464-4.002.85-5.593 2.282-1.668 1.51-4.028 9.82-4.428 11.262a.296.296 0 0 1-.281.214h-2.485a.286.286 0 0 1-.285-.235l-1.201-5.667c-.047-.24-11.643.719-12.537-4.47a.297.297 0 0 0-.39-.234c-1.112.406-4.678 1.396-6.622-1.605a5.95 5.95 0 0 1-.816-4.792.287.287 0 0 0-.182-.344c-.982-.422-4.537-2.423-4.054-8.997.416-5.324 3.976-7.673 3.477-8.486-1.44-2.349-.187-6.25 2.765-7.116a.307.307 0 0 0 .219-.26l.124-1.38c.406-4.871 6.794-7.96 11.134-5.934a.306.306 0 0 0 .421-.182 3.686 3.686 0 0 1 1.934-2.365 5.27 5.27 0 0 1 4.48-.094c.113.05.246.02.328-.073A6.645 6.645 0 0 1 29.604.002a6.748 6.748 0 0 1 4.642 1.719c.09.07.21.081.312.031.618-.318 2.88-1.333 5.146-.552a5.805 5.805 0 0 1 2.983 2.72c.066.12.204.181.338.15.81-.192 3.638-.734 5.977.334 2.495 1.13 3.27 2.76 3.467 3.308.04.112.146.189.265.192.52 0 2.033.152 2.953.928 1.632 1.37 1.47 2.453 1.284 2.917a.292.292 0 0 0 .14.37 9.423 9.423 0 0 1 4.163 4.136c1.778 3.532 1.04 6.564.089 7.814l-.021-.01z" id="a"/></defs><g fill="none" fill-rule="evenodd"><path d="M83.045 37.303c-1.04-12.164-8.233-23.385-18.301-30.105A43.414 43.414 0 0 0 46.261.405C28.199-1.955 9.159 6.005 2.34 23.8c-5.863 15.305-.083 30.49 10.395 42.076 3.79 4.167 4.315 12.039 4.315 17.337v10.736a2.982 2.982 0 0 0 2.978 2.985h38.77a2.976 2.976 0 0 0 2.968-2.787c.145-2.115.38-3.97.38-3.97.81-3.485 3.773-6.277 10.078-5.266 6.611 1.042 10.785-.912 11.154-5.324.125-1.454.203-13.888.203-13.888.317-.182 2.385-.594 5.41-1.282a3.063 3.063 0 0 0 1.46-5.162c-6.865-6.809-7.796-9.986-7.957-10.669-.852-3.391.837-7.715.52-11.283h.031z" fill="#2D2E3D"/><use fill="#C6C7DC" xlink:href="#a" transform="translate(9 9)"/><ellipse fill="#C6C7DC" cx="14.886" cy="96.919" rx="14.886" ry="14.919"/><path d="M15.024 89C11.697 89 9 91.703 9 95.038c0 3.328 4.98 10.882 6.024 10.882 1.045 0 6.02-7.554 6.02-10.882 0-3.333-2.695-6.035-6.02-6.038zm.13 8.418a2.081 2.081 0 0 1-2.079-2.083c0-1.151.93-2.084 2.08-2.084 1.147 0 2.078.933 2.078 2.084 0 1.15-.93 2.083-2.079 2.083z" fill="#2D2E3D" fill-rule="nonzero"/><circle fill="#2D2E3D" fill-rule="nonzero" cx="23.5" cy="24.5" r="2.5"/><circle fill="#2D2E3D" fill-rule="nonzero" cx="49.5" cy="47.5" r="2.5"/><circle fill="#2D2E3D" fill-rule="nonzero" cx="56.5" cy="23.5" r="1.5"/><circle fill="#2D2E3D" fill-rule="nonzero" cx="60.5" cy="32.5" r="1.5"/><circle fill="#2D2E3D" fill-rule="nonzero" cx="34.5" cy="51.5" r="1.5"/><circle fill="#2D2E3D" fill-rule="nonzero" cx="13.5" cy="28.5" r="1.5"/><circle fill="#2D2E3D" fill-rule="nonzero" cx="14.5" cy="44.5" r="3.5"/><g><path d="M51.945 11a3.058 3.058 0 0 0-2.684 4.51l-5.004 5.004a4.044 4.044 0 0 0-4.987 0l-3.904-3.904a2.01 2.01 0 0 0 .289-1.028 2.038 2.038 0 0 0-2.037-2.037 2.038 2.038 0 0 0-2.036 2.037c0 1.123.913 2.036 2.036 2.036.377 0 .725-.11 1.028-.288l3.904 3.904a4.049 4.049 0 0 0 0 4.986l-6.447 6.448a3.04 3.04 0 0 0-2.048-.795A3.058 3.058 0 0 0 27 34.927a3.058 3.058 0 0 0 3.055 3.055 3.058 3.058 0 0 0 2.684-4.51l6.532-6.532a4.049 4.049 0 0 0 1.984.824v5.173a3.057 3.057 0 0 0-2.545 3.008A3.058 3.058 0 0 0 41.764 39a3.058 3.058 0 0 0 3.055-3.055 3.057 3.057 0 0 0-2.546-3.008v-5.173a4.049 4.049 0 0 0 1.985-.824l3.904 3.904c-.18.304-.29.652-.29 1.029 0 1.123.914 2.036 2.037 2.036a2.038 2.038 0 0 0 2.036-2.036 2.038 2.038 0 0 0-2.036-2.037c-.377 0-.725.11-1.028.289l-3.904-3.904a4.049 4.049 0 0 0 0-4.987l4.92-4.92c.543.492 1.26.795 2.048.795A3.058 3.058 0 0 0 55 14.055 3.058 3.058 0 0 0 51.945 11z" fill="#2D2E3D"/><path stroke="#2D2E3D" d="M42.354 37.704l6.552 9.333L50.276 33h9.297v12.986l16.502-11.542L61.046 33l-4.238-9.5L72 22l-19.16-7-13.143-7.039L35 15.58l-15.098-2.658L40.472 23.5l-17 1.5 5.777 10.522L15 28.873v13.842l19.314 8.584-2.708-15.777 8.866.625L15 45.987"/></g></g></svg>
